X:23001
T:We Wish You A Merry Christmas
R:Waltz
C:Trad.
O:England, Sussex
Z:Paul Hardy's Xmas Tunebook 2019 (see www.paulhardy.net). Creative Commons cc by-nc-sa licenced.
M:3/4
L:1/8
Q:1/4=180
K:G
D2|"G" G2 GAGF|"C" E2 C2 E2|"A" A2 ABAG|"D" F2 D2 D2|"B7" B2 BcBA|"Em" G2 E2 DD|"C" E2 A2 "D" F2|"G" G4 D2||
"G" G2 G2 G2|"D" F4 F2|"A" G2 F2 E2|"D7" D4 A2|"G" B2 AA G2|"D" d2 D2 DD|"C" E2 A2 "D" F2|"G" G6|]
W:We wish you a merry Christmas, we wish you a merry Christmas,
W:We wish you a merry Christmas and a happy New Year!
W:Glad tidings we bring, to you and your kin,
W:We wish you a merry Christmas and a happy New Year!

